apps/ui-icons/svgs/checkmark_filled.svg

<svg viewBox="0 0 24 24" width="24" height="24"  fill="none" xmlns="http://www.w3.org/2000/svg">
<path fill-rule="evenodd" clip-rule="evenodd" d="M12 22C17.5228 22 22 17.5228 22 12C22 6.47715 17.5228 2 12 2C6.47715 2 2 6.47715 2 12C2 17.5228 6.47715 22 12 22ZM16.2096 7.89573L10.2599 13.8455L8.11271 11.6983C7.72694 11.3126 7.09762 11.3165 6.70709 11.707C6.31656 12.0975 6.31271 12.7268 6.69848 13.1125L9.54418 15.9582C9.92995 16.3439 10.5593 16.3401 10.9498 15.9495L17.6066 9.29268C17.9971 8.90216 18.001 8.27287 17.6152 7.88711C17.2294 7.50135 16.6001 7.50521 16.2096 7.89573Z" fill="#171D26"/>
</svg>

<svg xmlns="http://www.w3.org/2000/svg" width="24" height="24" fill="none" viewBox="0 0 24 24">
  <path fill="#171D26" fill-rule="evenodd" d="M12 22c5.523 0 10-4.477 10-10S17.523 2 12 2 2 6.477 2 12s4.477 10 10 10Zm4.21-14.104-5.95 5.95-2.147-2.148a.994.994 0 0 0-1.406.009.994.994 0 0 0-.009 1.405l2.846 2.846a.994.994 0 0 0 1.406-.008l6.657-6.657a.994.994 0 0 0 .008-1.406.994.994 0 0 0-1.405.009Z" clip-rule="evenodd"/>
</svg>
